X:964
T:Paddy the Piper
N:"Collected by F.O'Neill"
B:O'Neill's 964
Z:Transcribed by Dan G. Petersen, dangp@post6.tele.dk
M:6/8
L:1/8
K:D
A|Add dcd|efg afd|Add dcd|edc d2A|
Add dcd|efg aga|bab afd|{a}gec d2:|
A|dfa afd|Bgf gec|dcd Bgd|edc d2A|
dfa afd|Bgf gec|dAF DFA|Bec d2:|
M:9/8
B|AFA GEc d2B|AFA GFE D2(F/G/)|AFA GEa a2g|fdf gec d2B/B/|
AFA GEc d2B|AFA GFE D2F/G/|AFA GEa a2g/g/|fdf gec d2:|


